packages/kaspersky-hexa-ui-icons/src/iconsSVGs/16x12/FlagCeu.svg

<svg width="16" height="12" viewBox="0 0 16 12" fill="none" xmlns="http://www.w3.org/2000/svg">
<g clip-path="url(#clip0_41818_4381)">
<rect width="16" height="12" rx="2" fill="white"/>
<mask id="mask0_41818_4381" style="mask-type:luminance" maskUnits="userSpaceOnUse" x="0" y="0" width="16" height="12">
<rect width="16" height="12" rx="2" fill="white"/>
</mask>
<g mask="url(#mask0_41818_4381)">
<rect width="16" height="12" fill="#19BFBF"/>
<path d="M10.5192 1.48322C10.6441 1.4834 10.7591 1.55356 10.816 1.66486L11.068 2.15607C11.0918 2.20292 11.1041 2.25583 11.1041 2.30841V3.2049C11.1042 3.29446 11.1407 3.38055 11.2047 3.44318L11.3346 3.57111C11.4261 3.66089 11.459 3.79545 11.4176 3.91681L11.1881 4.58966C11.1391 4.73373 11.1936 4.8931 11.3209 4.97638L12.2467 5.5799L12.6627 5.78302C12.8447 5.8724 12.9059 6.1027 12.7916 6.27032L12.3053 6.98517C12.2676 7.04047 12.2467 7.10575 12.2467 7.17267V7.94513C12.2465 8.08911 12.154 8.21771 12.0172 8.26251L11.235 8.5174C11.1512 8.54472 11.0817 8.604 11.0416 8.68243L10.7477 9.25665C10.7313 9.2885 10.7098 9.31754 10.6842 9.34259L10.194 9.82208C10.0646 9.9483 9.85762 9.9482 9.72815 9.82208L9.25647 9.36017C9.21924 9.32377 9.19034 9.27856 9.17346 9.22931L8.86194 8.31622C8.8357 8.23943 8.76338 8.18752 8.68225 8.18732C8.55822 8.18743 8.46792 8.30443 8.49866 8.42462L8.77112 9.49103C8.80025 9.60597 8.7659 9.72828 8.68127 9.81134L8.67053 9.82208C8.54119 9.94843 8.33426 9.94809 8.20471 9.82208L8.15686 9.77521C8.09287 9.71259 8.05638 9.62644 8.05627 9.53693V9.01251C8.05625 8.96007 8.04389 8.90789 8.02014 8.86115L7.76819 8.36896C7.71125 8.25774 7.59624 8.1875 7.47131 8.18732H6.60999C6.55933 8.18732 6.50902 8.19929 6.4635 8.2215L5.89514 8.49884C5.81552 8.53778 5.7548 8.60733 5.7262 8.69122L5.4342 9.54669C5.40552 9.63017 5.34454 9.69926 5.26526 9.7381L4.77405 9.97833C4.68207 10.0232 4.5741 10.023 4.48206 9.97833L4.05334 9.76837C3.93917 9.71255 3.86514 9.59659 3.86487 9.46954V8.52032C3.86509 8.33642 4.01587 8.18732 4.19983 8.18732H4.67542C4.85908 8.18705 5.00906 8.03795 5.0094 7.85431V7.49786C5.0094 7.46142 5.01526 7.42495 5.02698 7.39044L5.31311 6.5506C5.35921 6.41573 5.48599 6.32501 5.62854 6.32501H6.07483C6.12537 6.32492 6.17591 6.31303 6.22131 6.29083L6.84436 5.98615C6.88987 5.96395 6.94021 5.95294 6.99084 5.95294H7.4137C7.55803 5.95257 7.6752 5.83462 7.67542 5.69025C7.67547 5.61977 7.70412 5.55202 7.75452 5.50275L7.76624 5.492C7.91061 5.35122 8.14997 5.39052 8.24182 5.57013L8.34436 5.7713C8.40142 5.88233 8.51638 5.95285 8.64124 5.95294H9.34143C9.4838 5.95273 9.6118 5.86112 9.65784 5.72638L9.8844 5.06134C9.93042 4.92635 10.0572 4.8348 10.1998 4.83478H10.5367C10.6391 4.83452 10.7229 4.75161 10.7233 4.64923C10.7233 4.54654 10.6394 4.46297 10.5367 4.46271H10.2946C10.1108 4.46263 9.96193 4.31342 9.96155 4.1297V3.79767C9.96161 3.74512 9.97379 3.69311 9.99768 3.6463L10.2379 3.17657C10.2998 3.0556 10.2752 2.90847 10.1783 2.81329C10.0576 2.6952 9.86457 2.69524 9.74377 2.81329L9.29944 3.24689C9.23539 3.30951 9.19994 3.39561 9.19983 3.48517V4.03497C9.19978 4.07142 9.19303 4.1079 9.18127 4.1424L8.89514 4.98224C8.84899 5.11675 8.72193 5.20762 8.57971 5.20782H8.57385C8.48707 5.20782 8.40267 5.17357 8.34045 5.1131L8.11194 4.88947C8.0766 4.85491 8.05638 4.80704 8.05627 4.75763C8.05623 4.62159 7.91388 4.53303 7.79163 4.59259L7.50549 4.73224C7.37911 4.79375 7.22727 4.76879 7.12659 4.67072L7.01428 4.56036C6.95029 4.49775 6.9138 4.41161 6.9137 4.32208V3.85822C6.9137 3.76851 6.95014 3.68265 7.01428 3.61993L7.67542 2.97247L8.76233 1.90997C8.79891 1.87423 8.8436 1.84675 8.89221 1.83087L9.91077 1.49982C9.94401 1.48902 9.97933 1.48322 10.0143 1.48322H10.5192ZM6.53284 8.93243C6.74288 8.93271 6.91351 9.09912 6.9137 9.3045C6.91348 9.50986 6.74286 9.67728 6.53284 9.67755C6.32258 9.67755 6.1522 9.51003 6.15198 9.3045C6.15216 9.09895 6.32256 8.93243 6.53284 8.93243ZM5.84827 3.4588C6.01095 3.45901 6.14319 3.59099 6.14319 3.75372V4.5838C6.14323 4.63319 6.15422 4.68177 6.17542 4.72638L6.29651 4.98224C6.40184 5.20344 6.24073 5.4588 5.99573 5.4588H5.90881C5.66381 5.4588 5.5027 5.20344 5.60803 4.98224L5.72913 4.72638C5.75033 4.68177 5.76131 4.6332 5.76135 4.5838V4.3338C5.76131 4.28441 5.75033 4.23584 5.72913 4.19122L5.58167 3.88068C5.48848 3.68499 5.63153 3.4588 5.84827 3.4588ZM5.0094 4.46271C5.21924 4.46317 5.39003 4.62955 5.39026 4.83478C5.39004 5.04002 5.21925 5.20736 5.0094 5.20782C4.79914 5.20782 4.62876 5.04031 4.62854 4.83478C4.62877 4.62926 4.79915 4.46271 5.0094 4.46271Z" fill="white"/>
</g>
</g>
<defs>
<clipPath id="clip0_41818_4381">
<rect width="16" height="12" fill="white"/>
</clipPath>
</defs>
</svg>

<svg xmlns="http://www.w3.org/2000/svg" width="16" height="12" fill="none" viewBox="0 0 16 12"><g clip-path="url(#a)"><rect width="16" height="12" fill="#fff" rx="2"/><mask id="b" width="16" height="12" x="0" y="0" maskUnits="userSpaceOnUse" style="mask-type:luminance"><rect width="16" height="12" fill="#fff" rx="2"/></mask><g mask="url(#b)"><path fill="#19bfbf" d="M0 0h16v12H0z"/><path fill="#fff" d="M10.5192 1.4832a.334.334 0 0 1 .2968.1817l.252.4912a.34.34 0 0 1 .0361.1523v.8965a.335.335 0 0 0 .1006.2383l.1299.128a.334.334 0 0 1 .083.3456l-.2295.6729a.334.334 0 0 0 .1328.3867l.9258.6035.416.2031a.3338.3338 0 0 1 .1289.4873l-.4863.7149a.334.334 0 0 0-.0586.1875v.7724a.335.335 0 0 1-.2295.3174l-.7822.2549a.333.333 0 0 0-.1934.165l-.2939.5743a.34.34 0 0 1-.0635.0859l-.4902.4795a.334.334 0 0 1-.4659 0l-.4716-.462a.34.34 0 0 1-.083-.1308l-.3116-.913a.191.191 0 0 0-.1797-.129.19.19 0 0 0-.1835.2373L8.771 9.491a.334.334 0 0 1-.0898.3203l-.0108.0108a.334.334 0 0 1-.4658 0l-.0478-.0469a.335.335 0 0 1-.1006-.2383v-.5244a.335.335 0 0 0-.0362-.1513l-.252-.4922a.335.335 0 0 0-.2968-.1817H6.61a.335.335 0 0 0-.1465.0342l-.5684.2773a.334.334 0 0 0-.1689.1924l-.292.8555a.335.335 0 0 1-.169.1914l-.4912.2402a.334.334 0 0 1-.292 0l-.4287-.21a.335.335 0 0 1-.1884-.2988v-.9492c.0002-.1839.151-.333.335-.333h.4755a.3346.3346 0 0 0 .334-.333V7.498c0-.0365.0059-.073.0176-.1075l.2861-.8398a.333.333 0 0 1 .3154-.2256h.4463a.335.335 0 0 0 .1465-.0342l.623-.3046a.334.334 0 0 1 .1465-.0333h.4229a.263.263 0 0 0 .2617-.2626.263.263 0 0 1 .0791-.1875l.0117-.0108a.2994.2994 0 0 1 .4756.0781l.1026.2012a.335.335 0 0 0 .2968.1816h.7002a.336.336 0 0 0 .3164-.2265l.2266-.665a.334.334 0 0 1 .3154-.2266h.3369a.187.187 0 0 0 .1866-.1856.187.187 0 0 0-.1866-.1865h-.2421a.3335.3335 0 0 1-.333-.333v-.332a.334.334 0 0 1 .036-.1514l.2403-.4697a.3108.3108 0 0 0-.4941-.3633l-.4444.4336a.333.333 0 0 0-.0996.2383v.5498a.34.34 0 0 1-.0185.1074l-.2862.8398a.3345.3345 0 0 1-.3154.2256h-.0059a.336.336 0 0 1-.2333-.0947l-.2286-.2236a.186.186 0 0 1-.0556-.1319.1838.1838 0 0 0-.2647-.165l-.2861.1396a.334.334 0 0 1-.379-.0615l-.1122-.1103a.335.335 0 0 1-.1006-.2383v-.4639a.334.334 0 0 1 .1006-.2383l.6611-.6474L8.7624 1.91a.34.34 0 0 1 .1298-.0791l1.0186-.331a.34.34 0 0 1 .1035-.0167zM6.5328 8.9324c.21.0003.3807.1667.3809.3721-.0002.2054-.1708.3728-.3809.373-.2102 0-.3806-.1675-.3808-.373.0002-.2056.1706-.372.3808-.372m-.6845-5.4736a.2953.2953 0 0 1 .2949.295v.83c0 .0494.011.098.0322.1426l.1211.2558c.1053.2212-.0558.4766-.3008.4766h-.0869c-.245 0-.4061-.2554-.3008-.4766l.1211-.2558a.33.33 0 0 0 .0323-.1426v-.25a.33.33 0 0 0-.0323-.1426l-.1474-.3105c-.0932-.1957.0498-.4219.2666-.4219m-.8389 1.004c.2098.0004.3806.1668.3809.372-.0003.2052-.171.3726-.3809.373-.2103 0-.3806-.1675-.3809-.373.0003-.2055.1707-.372.3809-.372"/></g></g><defs><clipPath id="a"><path fill="#fff" d="M0 0h16v12H0z"/></clipPath></defs></svg>
